archdroid-icon-theme/Archdroid-Amber/emblems/scalable/emblem-archive-symbolic.svg

<svg fill="#bdbdbd" height="48" viewBox="0 0 48 48" width="48" xmlns="http://www.w3.org/2000/svg"><path d="m12 6c-.93 0-1.760547.429844-2.310547 1.089844l-2.769531 3.359375c-.58.7-.919922 1.580781-.919922 2.550781v25c0 2.21 1.79 4 4 4h28c2.21 0 4-1.79 4-4v-25c0-.97-.340156-1.850781-.910156-2.550781l-2.769531-3.359375c-.56-.66-1.390313-1.089844-2.320313-1.089844zm-.119141 2h24l1.869141 2h-27.5zm4.619141 12h15v3h-15zm0 6h15v3h-15zm0 6h9v3h-9z" fill="#bdbdbd"/></svg>

<svg fill="#bdbdbd" height="48" version="1.1" viewBox="0 0 48 48" width="48" xmlns="http://www.w3.org/2000/svg"><path d="M12 6C11.07 6 10.239453 6.429844 9.689453 7.089844L6.919922 10.449219C6.339922 11.149219 6 12.03 6 13L6 38C6 40.21 7.79 42 10 42L38 42C40.21 42 42 40.21 42 38L42 13C42 12.03 41.659844 11.149219 41.089844 10.449219L38.320313 7.089844C37.760313 6.429844 36.93 6 36 6L12 6zM11.880859 8L35.880859 8 37.75 10 10.25 10 11.880859 8zM16.5 20L31.5 20 31.5 23 16.5 23 16.5 20zM16.5 26L31.5 26 31.5 29 16.5 29 16.5 26zM16.5 32L25.5 32 25.5 35 16.5 35 16.5 32z"/></svg>
